X:1
T: Mrs. Hood's Strathspey
C:Abraham Mackintosh
R:Strathspey
Q: 128
K:A
M:4/4
L:1/16
|:E2|A3B A3A ce3 e3c|df3 f3a ec3 B3c|A3B A3B ce3 f3a|g2fe B3^d eE3 E2E2|
A3B A3A ce3 e3c|df3 f3a ec3 B3c|A3B A3B ce3 f3a|g2fe B3^d eE3 E2e2|
e3f e3=g f3d B3d|e3c A3c B3G E3d|e3f e3=g f3d B3d|d3B G3B A4 A3c|
e3f e3=g f3d B3d|e3c A3c B3G E3G|F3A E3A D3A C3e|f3d B3g aA3 A2:|
